src/assets/icons/numbers,simple,04.svg

<svg width="48" height="48" viewBox="0 0 48 48" fill="none" xmlns="http://www.w3.org/2000/svg">
<rect opacity="0.2" x="5" y="5" width="38" height="38" rx="4" fill="black"/>
<path d="M14.9813 32.0369H25.8026V36H30.3602V32.0369H33.1563V28.217H30.3602V13.4545H24.3936L14.9813 28.283V32.0369ZM25.8907 28.217H19.781V28.0408L25.7146 18.6506H25.8907V28.217Z" fill="black"/>
</svg>

<svg xmlns="http://www.w3.org/2000/svg" width="48" height="48" fill="none" viewBox="0 0 48 48">
  <rect width="38" height="38" x="5" y="5" fill="#000" opacity=".2" rx="4"/>
  <path fill="#000" d="M14.981 32.037h10.822V36h4.557v-3.963h2.796v-3.82H30.36V13.455h-5.966L14.98 28.282v3.754zm10.91-3.82h-6.11v-.176l5.934-9.39h.176v9.566z"/>
</svg>
